;FLAVOR:Marlin
;TIME:19381
;Filament used: 11.0191m
;Layer height: 0.15
;MINX:23.5
;MINY:38.506
;MINZ:0.3
;MAXX:176.5
;MAXY:151.49
;MAXZ:9.3
;Generated with Cura_SteamEngine 4.6.1
M140 S50
M105
M190 S50
M104 S220
M105
M109 S220
M82 ;absolute extrusion mode
G1 Z15.0 F6000 ;Move the platform down 15mm
G92 E0
G1 F200 E3
G92 E0
G92 E0
G92 E0
G1 F1500 E-1.5
;LAYER_COUNT:61
;LAYER:0
M106 S178.5
G0 F2700 X164.01 Y142.166 Z0.3
;TYPE:SKIRT
G1 F1500 E0
G1 F1200 X161.773 Y143.758 E0.12357
G1 X159.587 Y145.41 E0.24689
G1 X157.483 Y147.093 E0.36815
G1 X156.144 Y148.216 E0.4468
G1 X155.368 Y148.878 E0.49271
G1 X154.729 Y149.369 E0.52897
G1 X154.416 Y149.592 E0.54627
G1 X153.984 Y149.848 E0.56887
G1 X153.113 Y150.252 E0.61208
G1 X152.609 Y150.427 E0.63609
G1 X151.784 Y150.61 E0.67413
G1 X151.238 Y150.674 E0.69887
G1 X150.685 Y150.69 E0.72377
G1 X150.372 Y150.69 E0.73785
G1 X149.839 Y150.645 E0.76193
G1 X148.98 Y150.47 E0.80138
G1 X148.45 Y150.304 E0.82638
G1 X147.866 Y150.063 E0.85481
G1 X147.425 Y149.862 E0.87662
G1 X144.848 Y148.558 E1.00661
G1 X142.354 Y147.384 E1.13067
G1 X139.836 Y146.285 E1.25431
G1 X137.301 Y145.262 E1.37734
G1 X134.732 Y144.313 E1.5006
G1 X132.166 Y143.444 E1.62253
G1 X129.511 Y142.628 E1.74754
G1 X126.902 Y141.906 E1.86937
G1 X124.229 Y141.247 E1.99327
G1 X121.55 Y140.665 E2.11666
G1 X118.87 Y140.165 E2.23935
G1 X116.166 Y139.738 E2.36256
G1 X113.438 Y139.385 E2.48636
G1 X110.735 Y139.114 E2.60862
G1 X107.984 Y138.914 E2.73276
G1 X105.272 Y138.797 E2.85493
G1 X102.351 Y138.753 E2.9864
G1 X97.64 Y138.753 E3.19843
G1 X94.843 Y138.793 E3.32432
G1 X92.126 Y138.908 E3.44671
G1 X89.38 Y139.103 E3.57061
G1 X86.674 Y139.371 E3.69299
G1 X83.951 Y139.719 E3.81654
G1 X81.25 Y140.144 E3.9396
G1 X78.542 Y140.647 E4.06356
G1 X75.894 Y141.217 E4.18546
G1 X73.254 Y141.864 E4.30779
G1 X70.574 Y142.601 E4.43289
G1 X67.951 Y143.404 E4.55635
G1 X65.356 Y144.279 E4.6796
G1 X62.82 Y145.215 E4.80126
G1 X60.245 Y146.249 E4.92614
G1 X57.735 Y147.341 E5.04933
G1 X55.299 Y148.483 E5.17042
G1 X53.903 Y149.195 E5.24095
G1 X52.359 Y149.962 E5.31854
G1 X51.716 Y150.251 E5.35027
G1 X51.197 Y150.431 E5.37499
G1 X50.327 Y150.623 E5.41509
G1 X49.795 Y150.687 E5.4392
G1 X48.956 Y150.69 E5.47696
G1 X48.417 Y150.635 E5.50135
G1 X47.856 Y150.53 E5.52703
G1 X47.478 Y150.447 E5.54445
G1 X46.979 Y150.29 E5.56799
G1 X46.124 Y149.909 E5.61012
G1 X45.67 Y149.65 E5.63365
G1 X44.927 Y149.123 E5.67464
G1 X42.589 Y147.15 E5.81233
G1 X40.457 Y145.442 E5.93527
G1 X38.283 Y143.802 E6.05783
G1 X36.081 Y142.233 E6.17952
G1 X33.748 Y140.671 E6.30588
G1 X31.475 Y139.239 E6.42679
G1 X29.168 Y137.889 E6.54709
G1 X28.692 Y137.604 E6.57206
G1 X28.381 Y137.392 E6.589
G1 X27.85 Y136.982 E6.61919
G1 X27.574 Y136.757 E6.63522
G1 X27.035 Y136.221 E6.66943
G1 X26.585 Y135.709 E6.7001
G1 X26.2 Y135.19 E6.72919
G1 X25.775 Y134.522 E6.76482
G1 X25.415 Y133.828 E6.80001
G1 X25.154 Y133.254 E6.82839
G1 X24.937 Y132.671 E6.85638
G1 X24.695 Y131.88 E6.89361
G1 X24.572 Y131.364 E6.91749
G1 X24.431 Y130.559 E6.95427
G1 X24.338 Y129.538 E7.00041
G1 X24.302 Y128.177 E7.06168
G1 X24.3 Y62.187 E10.03163
G1 X24.309 Y61.133 E10.07906
G1 X24.341 Y60.378 E10.11307
G1 X24.377 Y59.878 E10.13563
G1 X24.525 Y58.898 E10.18024
G1 X24.658 Y58.28 E10.20869
G1 X24.89 Y57.485 E10.24596
G1 X25.113 Y56.84 E10.27668
G1 X25.583 Y55.825 E10.32702
G1 X26.019 Y55.09 E10.36548
G1 X26.295 Y54.677 E10.38784
G1 X26.52 Y54.381 E10.40457
G1 X26.95 Y53.879 E10.43432
G1 X27.222 Y53.578 E10.45258
G1 X27.754 Y53.092 E10.48501
G1 X28.236 Y52.711 E10.51266
G1 X28.861 Y52.315 E10.54596
G1 X31.265 Y50.9 E10.6715
G1 X33.558 Y49.461 E10.79334
G1 X35.881 Y47.911 E10.91903
G1 X38.082 Y46.35 E11.04047
G1 X40.277 Y44.698 E11.16411
G1 X42.419 Y42.99 E11.28741
G1 X43.966 Y41.67 E11.37893
G1 X44.701 Y41.056 E11.42203
G1 X45.333 Y40.583 E11.45756
G1 X45.608 Y40.391 E11.47266
G1 X46.225 Y40.047 E11.50445
G1 X46.884 Y39.75 E11.53698
G1 X47.402 Y39.57 E11.56166
G1 X48.22 Y39.389 E11.59937
G1 X48.771 Y39.324 E11.62434
G1 X49.301 Y39.31 E11.6482
G1 X49.626 Y39.31 E11.66283
G1 X50.163 Y39.355 E11.68708
G1 X51.025 Y39.531 E11.72667
G1 X51.553 Y39.696 E11.75157
G1 X52.104 Y39.923 E11.77839
G1 X52.56 Y40.133 E11.80099
G1 X55.231 Y41.483 E11.93568
G1 X57.723 Y42.653 E12.05958
G1 X60.251 Y43.753 E12.18366
G1 X62.792 Y44.776 E12.30694
G1 X65.36 Y45.722 E12.43011
G1 X67.938 Y46.591 E12.55255
G1 X70.55 Y47.392 E12.67551
G1 X73.199 Y48.122 E12.79917
G1 X75.831 Y48.769 E12.92115
G1 X78.574 Y49.362 E13.04746
G1 X81.209 Y49.85 E13.16806
G1 X83.921 Y50.276 E13.29162
G1 X86.65 Y50.626 E13.41544
G1 X89.357 Y50.896 E13.53788
G1 X92.098 Y51.09 E13.66155
G1 X94.817 Y51.206 E13.78403
G1 X97.642 Y51.247 E13.91119
G1 X102.341 Y51.247 E14.12267
G1 X105.138 Y51.207 E14.24856
G1 X107.855 Y51.092 E14.37095
G1 X110.601 Y50.897 E14.49485
G1 X113.307 Y50.629 E14.61723
G1 X116.03 Y50.281 E14.74078
G1 X118.731 Y49.856 E14.86384
G1 X121.439 Y49.353 E14.9878
G1 X124.087 Y48.783 E15.10971
G1 X126.727 Y48.136 E15.23204
G1 X129.407 Y47.399 E15.35713
G1 X132.03 Y46.596 E15.48059
G1 X134.625 Y45.721 E15.60384
G1 X137.161 Y44.785 E15.7255
G1 X139.736 Y43.751 E15.85039
G1 X142.246 Y42.659 E15.97358
G1 X144.707 Y41.505 E16.09591
G1 X146.479 Y40.622 E16.18501
G1 X147.21 Y40.248 E16.22197
G1 X147.993 Y39.877 E16.26096
G1 X148.272 Y39.755 E16.27467
G1 X148.738 Y39.595 E16.29684
G1 X149.619 Y39.388 E16.33757
G1 X150.258 Y39.313 E16.36653
G1 X150.794 Y39.306 E16.39066
G1 X151.032 Y39.309 E16.40137
G1 X151.589 Y39.365 E16.42656
G1 X152.179 Y39.477 E16.45359
G1 X152.487 Y39.544 E16.46778
G1 X153.173 Y39.771 E16.5003
G1 X153.814 Y40.062 E16.53198
G1 X154.431 Y40.422 E16.56413
G1 X155.021 Y40.84 E16.59667
G1 X156.129 Y41.77 E16.66178
G1 X158.275 Y43.549 E16.78723
G1 X160.427 Y45.231 E16.91016
G1 X162.648 Y46.869 E17.03436
G1 X164.877 Y48.417 E17.1565
G1 X167.168 Y49.915 E17.27969
G1 X169.51 Y51.353 E17.40338
G1 X170.905 Y52.158 E17.47586
G1 X171.61 Y52.603 E17.51338
G1 X172.131 Y53.003 E17.54295
G1 X172.435 Y53.251 E17.5606
G1 X172.738 Y53.535 E17.57929
G1 X173.087 Y53.911 E17.60238
G1 X173.585 Y54.52 E17.63779
G1 X174.044 Y55.194 E17.67449
G1 X174.407 Y55.805 E17.70647
G1 X174.64 Y56.289 E17.73065
G1 X174.903 Y56.906 E17.76084
G1 X175.193 Y57.756 E17.80126
G1 X175.29 Y58.104 E17.81752
G1 X175.5 Y59.062 E17.86165
G1 X175.601 Y59.712 E17.89126
G1 X175.662 Y60.491 E17.92643
G1 X175.687 Y61.022 E17.95035
G1 X175.7 Y61.958 E17.99248
G1 X175.7 Y128.213 E20.97435
G1 X175.691 Y128.864 E21.00365
G1 X175.659 Y129.62 E21.03771
G1 X175.592 Y130.388 E21.0724
G1 X175.486 Y131.04 E21.10213
G1 X175.343 Y131.711 E21.13301
G1 X175.099 Y132.545 E21.17212
G1 X174.879 Y133.181 E21.20241
G1 X174.412 Y134.185 E21.25224
G1 X174.014 Y134.86 E21.28751
G1 X173.706 Y135.322 E21.3125
G1 X173.481 Y135.618 E21.32923
G1 X173.053 Y136.118 E21.35885
G1 X172.777 Y136.423 E21.37736
G1 X172.239 Y136.912 E21.41008
G1 X171.752 Y137.298 E21.43805
G1 X171.363 Y137.56 E21.45916
G1 X168.621 Y139.171 E21.60229
G1 X166.298 Y140.633 E21.72582
G1 X164.01 Y142.166 E21.84977
G1 F1500 E20.34977
G0 F2700 X152.033 Y147.969
G0 X151.199 Y148.152
G0 X150.477 Y148.161
G0 X92.137 Y139.308
G1 F1500 E21.84977
G1 F1200 X89.408 Y139.502 E21.9729
G1 X86.731 Y139.767 E22.09397
G1 X83.992 Y140.117 E22.21825
G1 X81.314 Y140.538 E22.34025
G1 X78.628 Y141.038 E22.46322
G1 X75.976 Y141.608 E22.5853
G1 X73.342 Y142.255 E22.70737
G1 X70.692 Y142.983 E22.83105
G1 X68.091 Y143.779 E22.95347
G1 X65.518 Y144.647 E23.07568
G1 X62.929 Y145.602 E23.19988
G1 X60.417 Y146.611 E23.32171
G1 X57.915 Y147.699 E23.4445
G1 X55.435 Y148.862 E23.56778
G1 X54.084 Y149.551 E23.63603
G1 X52.536 Y150.32 E23.71383
G1 X51.878 Y150.617 E23.74632
G1 X51.295 Y150.819 E23.77409
G1 X50.408 Y151.015 E23.81497
G1 X49.809 Y151.087 E23.84212
G1 X48.95 Y151.09 E23.88078
G1 X48.344 Y151.029 E23.90819
G1 X47.783 Y150.924 E23.93388
G1 X47.39 Y150.837 E23.952
G1 X46.828 Y150.661 E23.9785
G1 X45.955 Y150.271 E24.02153
G1 X45.444 Y149.98 E24.048
G1 X45.023 Y149.69 E24.07101
G1 X44.488 Y149.287 E24.10115
G1 X42.347 Y147.469 E24.22756
G1 X40.211 Y145.759 E24.35071
G1 X38.032 Y144.114 E24.47358
G1 X35.833 Y142.548 E24.59508
G1 X33.571 Y141.033 E24.71761
G1 X31.252 Y139.572 E24.84096
G1 X28.966 Y138.234 E24.96017
G1 X28.486 Y137.947 E24.98534
G1 X28.137 Y137.708 E25.00438
G1 X27.606 Y137.298 E25.03457
G1 X27.32 Y137.065 E25.05118
G1 X26.988 Y136.755 E25.07162
G1 X26.283 Y135.972 E25.11904
G1 X25.872 Y135.419 E25.15005
G1 X25.437 Y134.736 E25.18649
G1 X25.056 Y134.003 E25.22367
G1 X24.789 Y133.419 E25.25257
G1 X24.559 Y132.803 E25.28216
G1 X24.312 Y131.996 E25.32015
G1 X24.181 Y131.449 E25.34546
G1 X24.037 Y130.626 E25.38306
G1 X23.94 Y129.569 E25.43084
G1 X23.916 Y129.055 E25.45399
G1 X23.902 Y128.184 E25.4932
G1 X23.9 Y62.187 E28.46346
G1 X23.909 Y61.127 E28.51117
G1 X23.941 Y60.36 E28.54571
G1 X23.978 Y59.848 E28.56882
G1 X24.13 Y58.833 E28.61501
G1 X24.274 Y58.167 E28.64567
G1 X24.506 Y57.372 E28.68295
G1 X24.745 Y56.683 E28.71577
G1 X25.222 Y55.653 E28.76685
G1 X25.423 Y55.287 E28.78565
G1 X25.741 Y54.784 E28.81243
G1 X26.216 Y54.121 E28.84914
G1 X26.646 Y53.619 E28.87888
G1 X26.927 Y53.308 E28.89775
G1 X27.495 Y52.787 E28.93244
G1 X27.989 Y52.396 E28.96079
G1 X28.43 Y52.1 E28.9847
G1 X31.029 Y50.575 E29.12032
G1 X33.37 Y49.107 E29.24468
G1 X35.633 Y47.596 E29.36714
G1 X37.856 Y46.02 E29.48978
G1 X40.01 Y44.399 E29.61111
G1 X42.159 Y42.685 E29.73482
G1 X43.706 Y41.365 E29.82635
G1 X44.445 Y40.749 E29.86965
G1 X45.095 Y40.261 E29.90623
G1 X45.381 Y40.062 E29.92191
G1 X46.045 Y39.689 E29.95618
G1 X46.721 Y39.384 E29.98956
G1 X47.304 Y39.183 E30.01731
G1 X48.139 Y38.997 E30.05582
G1 X48.759 Y38.925 E30.08391
G1 X49.301 Y38.91 E30.10831
G1 X49.626 Y38.91 E30.12294
G1 X50.23 Y38.961 E30.15022
G1 X51.112 Y39.14 E30.19072
G1 X51.705 Y39.326 E30.21869
G1 X52.256 Y39.553 E30.24551
G1 X52.744 Y39.778 E30.2697
G1 X55.414 Y41.127 E30.40433
G1 X57.903 Y42.296 E30.52809
G1 X60.393 Y43.379 E30.6503
G1 X62.943 Y44.406 E30.77402
G1 X65.478 Y45.34 E30.89561
G1 X68.036 Y46.202 E31.01709
G1 X70.669 Y47.01 E31.14105
G1 X73.3 Y47.734 E31.26386
G1 X75.932 Y48.381 E31.38584
G1 X78.634 Y48.965 E31.51026
G1 X81.308 Y49.461 E31.63265
G1 X83.962 Y49.878 E31.75357
G1 X86.707 Y50.23 E31.87812
G1 X89.386 Y50.497 E31.99929
G1 X92.109 Y50.69 E32.12215
G1 X94.84 Y50.807 E32.24517
G1 X97.648 Y50.847 E32.37156
G1 X102.335 Y50.847 E32.5825
G1 X105.115 Y50.808 E32.70763
G1 X107.844 Y50.692 E32.83056
G1 X110.573 Y50.498 E32.95369
G1 X113.25 Y50.233 E33.07476
G1 X115.989 Y49.883 E33.19904
G1 X118.667 Y49.462 E33.32104
G1 X121.353 Y48.962 E33.44401
G1 X124.005 Y48.392 E33.56609
G1 X126.639 Y47.745 E33.68816
G1 X129.289 Y47.017 E33.81184
G1 X131.89 Y46.221 E33.93426
G1 X134.463 Y45.353 E34.05647
G1 X137.052 Y44.398 E34.18067
G1 X139.564 Y43.389 E34.3025
G1 X142.066 Y42.301 E34.42529
G1 X144.555 Y41.134 E34.54901
G1 X146.306 Y40.261 E34.63707
G1 X147.027 Y39.892 E34.67352
G1 X147.823 Y39.515 E34.71316
G1 X148.113 Y39.388 E34.72741
G1 X148.637 Y39.208 E34.75235
G1 X149.533 Y38.997 E34.79378
G1 X150.252 Y38.913 E34.82636
G1 X150.799 Y38.906 E34.85098
G1 X151.037 Y38.909 E34.86169
G1 X151.663 Y38.972 E34.89
G1 X152.253 Y39.084 E34.91703
G1 X152.573 Y39.153 E34.93176
G1 X153.106 Y39.316 E34.95685
G1 X153.522 Y39.486 E34.97707
G1 X153.983 Y39.7 E34.99995
G1 X154.646 Y40.085 E35.03445
G1 X155.255 Y40.515 E35.06801
G1 X156.384 Y41.462 E35.13433
G1 X158.531 Y43.241 E35.25981
G1 X160.665 Y44.91 E35.38174
G1 X162.867 Y46.535 E35.50491
G1 X165.102 Y48.086 E35.62735
G1 X167.39 Y49.582 E35.75038
G1 X169.697 Y50.998 E35.8722
G1 X171.105 Y51.811 E35.94538
G1 X171.503 Y52.048 E35.96623
G1 X171.853 Y52.286 E35.98527
G1 X172.374 Y52.686 E36.01484
G1 X172.689 Y52.942 E36.0331
G1 X173.03 Y53.262 E36.05415
G1 X173.39 Y53.65 E36.07797
G1 X173.916 Y54.295 E36.11543
G1 X174.375 Y54.969 E36.15213
G1 X174.767 Y55.631 E36.18676
G1 X175.005 Y56.125 E36.21143
G1 X175.281 Y56.777 E36.2433
G1 X175.571 Y57.627 E36.28372
G1 X175.681 Y58.018 E36.302
G1 X175.891 Y58.976 E36.34614
G1 X176 Y59.681 E36.37825
G1 X176.061 Y60.46 E36.41341
G1 X176.087 Y61.016 E36.43846
G1 X176.1 Y61.952 E36.48059
G1 X176.1 Y128.219 E39.463
G1 X176.091 Y128.87 E39.4923
G1 X176.059 Y129.637 E39.52685
G1 X176.023 Y130.138 E39.54946
G1 X175.88 Y131.104 E39.59341
G1 X175.727 Y131.823 E39.62649
G1 X175.483 Y132.657 E39.6656
G1 X175.246 Y133.339 E39.6981
G1 X174.773 Y134.357 E39.74862
G1 X174.354 Y135.071 E39.78587
G1 X174.038 Y135.545 E39.81151
G1 X173.785 Y135.878 E39.83034
G1 X173.357 Y136.378 E39.85996
G1 X173.072 Y136.693 E39.87907
G1 X172.498 Y137.218 E39.91408
G1 X172 Y137.612 E39.94266
G1 X171.561 Y137.907 E39.96647
G1 X168.816 Y139.521 E40.10978
G1 X166.487 Y140.987 E40.23364
G1 X164.259 Y142.48 E40.35434
G1 X162.024 Y144.071 E40.47781
G1 X159.832 Y145.726 E40.60143
G1 X157.694 Y147.438 E40.7247
G1 X156.424 Y148.502 E40.79926
G1 X155.628 Y149.183 E40.84641
G1 X154.97 Y149.688 E40.88374
G1 X154.646 Y149.919 E40.90165
G1 X154.16 Y150.207 E40.92707
G1 X153.71 Y150.425 E40.94958
G1 X153.275 Y150.618 E40.971
G1 X152.708 Y150.814 E40.998
G1 X151.865 Y151.002 E41.03687
G1 X151.251 Y151.074 E41.06469
G1 X150.685 Y151.09 E41.09017
G1 X150.372 Y151.09 E41.10426
G1 X149.772 Y151.04 E41.13136
G1 X148.893 Y150.861 E41.17173
G1 X148.298 Y150.674 E41.1998
G1 X147.714 Y150.433 E41.22823
G1 X147.244 Y150.219 E41.25148
G1 X144.648 Y148.905 E41.38243
G1 X142.218 Y147.761 E41.5033
G1 X139.662 Y146.646 E41.62881
G1 X137.161 Y145.637 E41.75018
G1 X134.602 Y144.691 E41.87297
G1 X132.026 Y143.819 E41.99537
G1 X129.424 Y143.019 E42.11788
G1 X126.78 Y142.288 E42.24134
G1 X124.154 Y141.64 E42.36308
G1 X121.457 Y141.054 E42.48729
G1 X118.811 Y140.561 E42.60842
G1 X116.085 Y140.13 E42.73263
G1 X113.419 Y139.785 E42.85362
G1 X110.703 Y139.512 E42.97647
G1 X107.973 Y139.315 E43.09966
G1 X105.248 Y139.196 E43.22242
G1 X102.345 Y139.153 E43.35308
G1 X97.646 Y139.153 E43.56457
G1 X94.866 Y139.192 E43.68969
G1 X92.137 Y139.308 E43.81263
G1 F1500 E42.31263
G0 F2700 X150.306 Y148.165
G0 X151.199 Y148.152
G0 X151.874 Y148.005
G0 X164.491 Y142.806
G1 F1500 E43.81263
G1 F1200 X162.251 Y144.401 E43.93639
G1 X160.078 Y146.042 E44.05894
G1 X157.966 Y147.732 E44.18068
G1 X156.658 Y148.829 E44.25751
G1 X155.887 Y149.487 E44.30312
G1 X155.211 Y150.007 E44.34151
G1 X154.877 Y150.246 E44.35999
G1 X154.336 Y150.566 E44.38828
G1 X153.872 Y150.79 E44.41147
G1 X153.437 Y150.983 E44.43289
G1 X152.808 Y151.202 E44.46286
G1 X151.945 Y151.394 E44.50265
G1 X151.263 Y151.474 E44.53356
G1 X150.685 Y151.49 E44.55958
G1 X150.372 Y151.49 E44.57367
G1 X149.705 Y151.434 E44.60379
G1 X148.807 Y151.252 E44.64503
G1 X148.145 Y151.044 E44.67626
G1 X147.561 Y150.803 E44.70469
G1 X147.063 Y150.576 E44.72933
G1 X144.462 Y149.259 E44.86054
G1 X142.037 Y148.118 E44.98115
G1 X139.532 Y147.025 E45.10416
G1 X136.998 Y146.002 E45.22715
G1 X134.484 Y145.073 E45.34777
G1 X131.895 Y144.197 E45.47078
G1 X129.305 Y143.401 E45.59272
G1 X126.716 Y142.685 E45.71362
G1 X124.045 Y142.026 E45.83743
G1 X121.364 Y141.444 E45.96091
G1 X118.748 Y140.956 E46.08067
G1 X116.043 Y140.528 E46.20393
G1 X113.364 Y140.182 E46.3255
G1 X110.67 Y139.911 E46.44736
G1 X107.926 Y139.712 E46.57118
G1 X105.26 Y139.596 E46.69128
G1 X102.339 Y139.553 E46.82276
G1 X97.652 Y139.553 E47.0337
G1 X94.853 Y139.593 E47.15968
G1 X92.182 Y139.706 E47.28
G1 X89.475 Y139.898 E47.40214
G1 X86.754 Y140.168 E47.5252
G1 X84.068 Y140.511 E47.64707
G1 X81.377 Y140.934 E47.76967
G1 X78.679 Y141.436 E47.89318
G1 X76.083 Y141.994 E48.01268
G1 X73.438 Y142.643 E48.13525
G1 X70.809 Y143.366 E48.25797
G1 X68.188 Y144.168 E48.38133
G1 X65.647 Y145.026 E48.50203
G1 X63.08 Y145.972 E48.62515
G1 X60.576 Y146.978 E48.7466
G1 X58.079 Y148.064 E48.86915
G1 X55.632 Y149.212 E48.9908
G1 X54.266 Y149.908 E49.0598
G1 X52.714 Y150.678 E49.13777
G1 X52.041 Y150.982 E49.17101
G1 X51.392 Y151.207 E49.20192
G1 X50.489 Y151.407 E49.24355
G1 X49.823 Y151.487 E49.27374
G1 X48.944 Y151.49 E49.3133
G1 X48.27 Y151.422 E49.34378
G1 X47.709 Y151.317 E49.36947
G1 X47.302 Y151.228 E49.38822
